src/main/resources/META-INF/pluginIcon.svg

<?xml version="1.0" encoding="UTF-8"?>
<svg width="40px" height="40px" viewBox="0 0 40 40" version="1.1" xmlns="http://www.w3.org/2000/svg">
    <g stroke="none" stroke-width="1" fill="none" fill-rule="evenodd">
        <g id="tauri" transform="translate(6.000000, 4.000000)" fill-rule="nonzero">
            <path d="M19.8098697,11.6454116 C19.8098697,13.3272279 18.4464882,14.6906094 16.7646718,14.6906094 C15.0828555,14.6906094 13.719474,13.3272279 13.719474,11.6454116 C13.719474,9.96359525 15.0828555,8.60021373 16.7646718,8.60021373 C18.4464882,8.60021373 19.8098697,9.96359525 19.8098697,11.6454116 L19.8098697,11.6454116 Z"
                  id="Path" fill="#FFC131"/>
            <circle id="Oval" fill="#24C8DB"
                    transform="translate(11.643203, 20.365751) rotate(-180.000000) translate(-11.643203, -20.365751) "
                    cx="11.6432027" cy="20.3657509" r="3.04519785"/>
            <g id="Group">
                <path d="M23.0765365,21.4038865 C21.8526793,22.1950832 20.4909898,22.74915 19.062412,23.0372199 C19.4764265,21.8568508 19.6137622,20.5971515 19.4638245,19.3552989 C22.7881094,18.1931866 24.9930748,15.0310281 24.9343609,11.509959 C24.8756471,7.98888983 22.5664788,4.9020046 19.2052963,3.85137256 C15.8441139,2.80074052 12.1879985,4.02300871 10.1344456,6.88382949 C8.58502139,7.05816186 7.07725155,7.49831827 5.67738332,8.18495948 C7.19827413,3.27790572 11.7592634,-0.0494005911 16.8963627,0.000554925396 C22.0334621,0.0505104419 26.5288824,3.46588544 27.9540577,8.40158811 C29.379233,13.3372908 27.3963145,18.6232745 23.0765365,21.4038865 Z M5.8158014,10.3027562 L8.66721393,10.6488014 C8.73189184,10.0981541 8.8524762,9.55552446 9.02710095,9.02930979 C7.89922817,9.29151628 6.81685104,9.7207348 5.8158014,10.3027562 L5.8158014,10.3027562 Z"
                      id="Shape" fill="#FFC131"/>
                <path d="M5.3174963,10.607276 C6.54871079,9.80800556 7.92013775,9.24910211 9.35930435,8.96010075 C8.92396982,10.1402864 8.76763213,11.4052004 8.90252467,12.6558636 C5.5900105,13.8343157 3.40352979,17.0005714 3.47482974,20.5157408 C3.54612969,24.0309103 5.8592047,27.1058992 9.21678094,28.1490585 C12.5743572,29.1922179 16.2227174,27.9693766 18.273429,25.1134911 C19.8220139,24.9435169 21.3297465,24.5080538 22.7304913,23.826203 C21.2058507,28.7279244 16.6471656,32.0497621 11.5140506,31.999436 C6.38093572,31.9491098 1.88825663,28.5385307 0.460014815,23.6078587 C-0.968226998,18.6771866 1.00599362,13.3933747 5.3174963,10.607276 L5.3174963,10.607276 Z M22.5782314,21.7084063 L22.5228641,21.7360899 L22.5782314,21.7084063 Z"
                      id="Shape" fill="#24C8DB"/>
            </g>
        </g>
    </g>
</svg>

<svg xmlns="http://www.w3.org/2000/svg" width="40" height="40">
    <g fill="none" fill-rule="nonzero" transform="translate(6 4)">
        <path fill="#FFC131" d="M19.81 11.645a3.045 3.045 0 1 1-6.09 0 3.045 3.045 0 0 1 6.09 0Z"/>
        <circle cx="11.643" cy="20.366" r="3.045" fill="#24C8DB" transform="rotate(-180 11.643 20.366)"/>
        <path fill="#FFC131" d="M23.077 21.404a11.627 11.627 0 0 1-4.015 1.633c.414-1.18.552-2.44.402-3.682a8.167 8.167 0 1 0-9.33-12.471c-1.549.174-3.057.614-4.457 1.301a11.627 11.627 0 1 1 17.4 13.219ZM5.816 10.303l2.851.346c.065-.55.185-1.093.36-1.62-1.128.263-2.21.692-3.211 1.274Z"/>
        <path fill="#24C8DB" d="M5.317 10.607A11.627 11.627 0 0 1 9.36 8.96a8.153 8.153 0 0 0-.456 3.696 8.167 8.167 0 1 0 9.37 12.457 13.565 13.565 0 0 0 4.457-1.287A11.627 11.627 0 1 1 5.317 10.607Zm17.261 11.101-.055.028.055-.028Z"/>
    </g>
</svg>
